!!!!SEGMENT: pl-cz--i-8--006_danka--missa-es-sanctus.krn
!!!cenid: 18xx:726
!!!COM: Danka
!!!COM-rism: pe30085946
!!!CDT: <1790->1810
!!!CNT:
!!!OTL: Missa Es – Sanctus
!!!PDT: 1800
!!!AGN: Sacred; Mass
!!!SMS-siglum: PL-CZ
!!!SMS-shelfmark: I-8
!!!NIFC-rismID: 300000103
!!!URL-scan: http://repozytorium.nifc.pl/skany/pl-cz-nut--i-8
!!!ONB-nifc: UWAGA: części Mszy: Kyrie, Gloria, Credo, Et incarnatus, Et resurrexit, Sanctus, Benedictus, Agnus Dei, Dona nobis
!!!SMS-variant:
!!!SMS-altvar:
**kern	**fba	**dynam	**kern	**dynam	**kern	**dynam	**kern	**text	**kern	**text	**kern	**text	**kern	**text	**kern	**kern	**kern	**kern	**kern	**kern
*part13	*	*	*part12	*	*part11	*	*part10	*part10	*part9	*part9	*part8	*part8	*part7	*part7	*part6	*part5	*part4	*part3	*part2	*part1
*	*	*	*group4	*	*group4	*	*group3	*	*group3	*	*group3	*	*group3	*	*group2	*group2	*group1	*group1	*group1	*group1
*staff13	*	*	*staff12	*	*staff11	*	*staff10	*staff10	*staff9	*staff9	*staff8	*staff8	*staff7	*staff7	*staff6	*staff5	*staff4	*staff3	*staff2	*staff1
*I"Organo	*	*	*I"Violino IIdo	*	*I"Violino Primo.	*	*I"Baſso.	*	*I"Tenore	*	*I"Alto	*	*I"Canto.	*	*I"Cornu Secondo in Es.	*I"Cornu Primo in Es.	*I"Fagotto Obligato	*I"Clarinetto IIdo in Es.	*I"Clarinetto Primo in Dis	*I"Flauto Solo Benedictus
*I'org	*	*	*I'vl II	*	*I'vl I	*	*I'B	*	*I'T	*	*I'A	*	*I'C	*	*I'cor II	*I'cor I	*I'fg	*I'cl II	*I'cl I	*I'fl
*clefF4	*	*	*clefG2	*	*clefG2	*	*clefF4	*	*clefC4	*	*clefC3	*	*clefC1	*	*clefG2	*clefG2	*clefF4	*clefG2	*clefG2	*clefG2
*	*	*	*	*	*	*	*	*	*	*	*	*	*	*	*ITrd5c9	*ITrd5c9	*	*ITrd1c2	*ITrd1c2	*
*k[b-e-]	*	*	*k[b-e-]	*	*k[b-e-]	*	*k[b-e-]	*	*k[b-e-]	*	*k[b-e-]	*	*k[e-b-]	*	*k[b-e-]	*k[b-e-]	*k[b-e-]	*k[b-e-]	*k[b-e-]	*k[b-e-]
*M4/4	*	*	*M4/4	*	*M4/4	*	*M4/4	*	*M4/4	*	*M4/4	*	*M4/4	*	*M4/4	*M4/4	*M4/4	*M4/4	*M4/4	*M4/4
*met(c)	*	*	*met(c)	*	*met(c)	*	*met(c)	*	*met(c)	*	*met(c)	*	*met(c)	*	*met(c)	*met(c)	*met(c)	*met(c)	*met(c)	*met(c)
!LO:TX:a:t=P:problem:dopiski czerwonym atramentem (przepisano)	!	!	!LO:TX:a:t=P:problem:dopiski czerwonym atramentem (przepisano)	!	!LO:TX:a:t=P:problem:dopiski czerwonym atramentem (przepisano)	!	!	!	!	!	!LO:TX:a:t=P:problem:dopiski czerwonym atramentem (przepisano)	!	!LO:TX:a:t=P:problem:dopiski czerwonym atramentem (przepisano)	!	!	!	!LO:TX:a:t=P:problem:dopiski czerwonym atramentem (przepisano)	!LO:TX:a:t=P:problem:dopiski czerwonym atramentem (przepisano)	!	!
!	!	!	!	!	!LO:TX:a:t=Solo	!	!	!	!LO:TX:a:t=P:problem:bemole B- E-	!	!	!	!LO:TX:a:t=Solo	!	!	!	!	!LO:TX:a:t=P:problem:UWAGA:w źródle błędny wybór transpozycji instrumentu - użyto klarnetu W STROJU B (graficznie tak samo jak w źródle, por. wątki #79 i #95)	!LO:TX:a:t=P:problem:UWAGA:w źródle błędny wybór transpozycji instrumentu - użyto klarnetu W STROJU B (graficznie tak samo jak w źródle, por. wątki #79 i #95)	!
!LO:TX:a:t=Adagio	!	!	!LO:TX:a:B:t=Adagio	!	!LO:TX:a:B:t=Adagio	!	!LO:TX:a:t=Adagio	!	!LO:TX:a:t=Adagio	!	!LO:TX:a:t=Adagio	!	!LO:TX:a:t=Adagio	!	!	!	!LO:TX:a:B:t=Adagio	!LO:TX:a:B:t=Adagio	!LO:TX:a:B:t=Adagio	!LO:TX:a:t=Tacet:problem:brak karty głosu, poza tym tylko w części Benedictus
!LO:TX:b:B:t=Sanctus	!	!	!LO:TX:b:B:t=Sanctus	!	!LO:TX:b:B:t=Sanctus	!	!	!	!LO:TX:b:t=Sanct(us)	!	!	!	!	!	!LO:TX:a:B::t=Sanctus Tacet	!LO:TX:a:B::t=Sanctus Tacet&colon;	!LO:TX:b:B:t=Sanctus.	!LO:TX:b:B:t=Sanctus	!LO:TX:b:B:t=Sanctus	!
8r	.	.	8r	.	8dd\	.	8r	.	8r	.	8r	.	8r	.	8ryy	8ryy	8ryy	8r	8r	8ryy
=1	=1	=1	=1	=1	=1	=1	=1	=1	=1	=1	=1	=1	=1	=1	=1	=1	=1	=1	=1	=1
*	*	*	*^	*	*	*	*	*	*	*	*	*	*	*	*	*	*	*	*	*
!LO:TX:a:t=Solo	!	!	!	!	!	!	!	!	!	!	!	!LO:TX:a:t=Solo	!	!	!	!	!	!LO:TX:a:t=Solo	!	!LO:TX:a:t=3	!
8G\L	.	.	8b-/L	2ryy	.	(16gg\LL	.	00r	.	00r	.	0r	.	0r	.	1ryy	1ryy	8G\L	0r	0r	1ryy
.	.	.	.	.	.	16dd\)	.	.	.	.	.	.	.	.	.	.	.	.	.	.	.
!	!	!	!LO:TX:a:t=Solo	!	!	!LO:TX:a:t=|:problem	!	!	!	!	!	!	!	!	!	!	!	!	!	!	!
8G\	.	.	8b-/	.	.	16dd\	.	.	.	.	.	.	.	.	.	.	.	8G\	.	.	.
!	!	!	!	!	!	!LO:TX:a:t=|:problem	!	!	!	!	!	!	!	!	!	!	!	!	!	!	!
.	.	.	.	.	.	16dd\JJ	.	.	.	.	.	.	.	.	.	.	.	.	.	.	.
8G\	.	.	8b-/	.	.	(16dd\LL	.	.	.	.	.	.	.	.	.	.	.	8G\	.	.	.
.	.	.	.	.	.	32cc\L	.	.	.	.	.	.	.	.	.	.	.	.	.	.	.
.	.	.	.	.	.	32dd\JJJ)	.	.	.	.	.	.	.	.	.	.	.	.	.	.	.
8G\J	.	.	8b-/J	.	.	(16ee-\LL	.	.	.	.	.	.	.	.	.	.	.	8G\J	.	.	.
.	.	.	.	.	.	16dd\JJ)	.	.	.	.	.	.	.	.	.	.	.	.	.	.	.
*2\right	*	*	*	*2\right	*	*	*	*	*	*	*	*	*	*	*	*	*	*2\right	*	*	*
*tremolo	*	*	*tremolo	*	*	*	*	*	*	*	*	*	*	*	*	*	*	*tremolo	*	*	*
8D\L	#	.	8a/L	8f#X\L	.	16dd\LL	.	.	.	.	.	.	.	.	.	.	.	8D\L	.	.	.
.	.	.	.	.	.	16cc\J	.	.	.	.	.	.	.	.	.	.	.	.	.	.	.
8D\	.	.	8a/	8f#X\	.	8cc\J	.	.	.	.	.	.	.	.	.	.	.	8D\	.	.	.
8D\	.	.	8a/	8f#X\	.	16r	.	.	.	.	.	.	.	.	.	.	.	8D\	.	.	.
.	.	.	.	.	.	(16a\LL	.	.	.	.	.	.	.	.	.	.	.	.	.	.	.
8D\J	.	.	8a/J	8f#X\J	.	16cc\	.	.	.	.	.	.	.	.	.	.	.	8D\J	.	.	.
.	.	.	.	.	.	16ff#X\JJ)	.	.	.	.	.	.	.	.	.	.	.	.	.	.	.
*	*	*	*v	*v	*	*	*	*	*	*	*	*	*	*	*	*	*	*	*	*	*
=2	=2	=2	=2	=2	=2	=2	=2	=2	=2	=2	=2	=2	=2	=2	=2	=2	=2	=2	=2	=2
8F#X\L	6 5	.	8a/L	.	(16aa\LL	.	.	.	.	.	.	.	.	.	1ryy	1ryy	8F#X\L	.	.	1ryy
.	.	.	.	.	16cc\)	.	.	.	.	.	.	.	.	.	.	.	.	.	.	.
!	!	!	!	!	!LO:TX:a:t=|:problem	!	!	!	!	!	!	!	!	!	!	!	!	!	!	!
8F#X\	.	.	8a/	.	16cc\	.	.	.	.	.	.	.	.	.	.	.	8F#X\	.	.	.
!	!	!	!	!	!LO:TX:a:t=|:problem	!	!	!	!	!	!	!	!	!	!	!	!	!	!	!
.	.	.	.	.	16cc\JJ	.	.	.	.	.	.	.	.	.	.	.	.	.	.	.
8F#X\	.	.	8a/	.	(16cc\LL	.	.	.	.	.	.	.	.	.	.	.	8F#X\	.	.	.
.	.	.	.	.	32b-\L	.	.	.	.	.	.	.	.	.	.	.	.	.	.	.
.	.	.	.	.	32cc\JJJ)	.	.	.	.	.	.	.	.	.	.	.	.	.	.	.
8F#X\J	.	.	8a/J	.	(16dd\LL	.	.	.	.	.	.	.	.	.	.	.	8F#X\J	.	.	.
*Xtremolo	*	*	*Xtremolo	*	*	*	*	*	*	*	*	*	*	*	*	*	*Xtremolo	*	*	*
.	.	.	.	.	16cc\JJ)	.	.	.	.	.	.	.	.	.	.	.	.	.	.	.
!LO:TX:a:t=P:problem:mixed beam	!	!	!	!	!LO:LB:g=original	!	!	!	!	!	!	!	!	!	!	!	!LO:TX:a:t=P:problem:mixed beam	!	!	!
8G\L	.	.	8g/L	.	16cc\LL	.	.	.	.	.	.	.	.	.	.	.	8G\L	.	.	.
.	.	.	.	.	16b-\J	.	.	.	.	.	.	.	.	.	.	.	.	.	.	.
8G\	.	.	8g/J	.	8b-\J	.	.	.	.	.	.	.	.	.	.	.	8G\	.	.	.
8GG/J	.	.	16r	.	16r	.	.	.	.	.	.	.	.	.	.	.	8GG/J	.	.	.
.	.	.	16b-'\LL	.	16gg'\LL	.	.	.	.	.	.	.	.	.	.	.	.	.	.	.
8r	.	.	16b-'\	.	16gg'\	.	.	.	.	.	.	.	.	.	.	.	8r	.	.	.
.	.	.	16b-'\JJ	.	16gg'\JJ	.	.	.	.	.	.	.	.	.	.	.	.	.	.	.
=3	=3	=3	=3	=3	=3	=3	=3	=3	=3	=3	=3	=3	=3	=3	=3	=3	=3	=3	=3	=3
8r	.	.	(16b-\LL	.	(16gg\LL	.	.	.	.	.	1r	.	1r	.	1ryy	1ryy	8r	1r	1r	1ryy
.	.	.	16a\J)	.	16ff#X\J)	.	.	.	.	.	.	.	.	.	.	.	.	.	.	.
!	!	!	!LO:TX:a:t=|:problem	!	!LO:TX:a:t=|:problem	!	!	!	!	!	!	!	!	!	!	!	!	!	!	!
8d\L	#	.	8cc\J	.	8aa\J	.	.	.	.	.	.	.	.	.	.	.	8d\L	.	.	.
8D\J	.	.	16r	.	16r	.	.	.	.	.	.	.	.	.	.	.	8D\J	.	.	.
.	.	.	16cc'\LL	.	16aa'\LL	.	.	.	.	.	.	.	.	.	.	.	.	.	.	.
8r	.	.	16cc'\	.	16aa'\	.	.	.	.	.	.	.	.	.	.	.	8r	.	.	.
.	.	.	16cc'\JJ	.	16aa'\JJ	.	.	.	.	.	.	.	.	.	.	.	.	.	.	.
!	!	!	!LO:LB:g=original	!	!	!	!	!	!	!	!	!	!	!	!	!	!	!	!	!
8r	.	.	(16cc\LL	.	(16aa\LL	.	.	.	.	.	.	.	.	.	.	.	8r	.	.	.
.	.	.	16b-\J)	.	16gg\J)	.	.	.	.	.	.	.	.	.	.	.	.	.	.	.
!LO:TX:a:t=P:problem:mixed beam	!	!	!LO:TX:a:t=|:problem	!	!LO:TX:a:t=|:problem	!	!	!	!	!	!	!	!	!	!	!	!LO:TX:a:t=P:problem:mixed beam	!	!	!
8G\L	.	.	8dd\J	.	8bb-\J	.	.	.	.	.	.	.	.	.	.	.	8G\L	.	.	.
8GG/J	.	.	16r	.	16r	.	.	.	.	.	.	.	.	.	.	.	8GG/J	.	.	.
!	!	!	!LO:TX:a:t=|:problem	!	!	!	!	!	!	!	!	!	!	!	!	!	!	!	!	!
.	.	.	16b-\LL	.	16dd'\LL	.	.	.	.	.	.	.	.	.	.	.	.	.	.	.
!	!	!	!LO:TX:a:t=|:problem	!	!	!	!	!	!	!	!	!	!	!	!	!	!	!	!	!
8r	.	.	16b-\	.	16dd'\	.	.	.	.	.	.	.	.	.	.	.	8r	.	.	.
!	!	!	!LO:TX:a:t=|:problem	!	!	!	!	!	!	!	!	!	!	!	!	!	!	!	!	!
.	.	.	16b-\JJ	.	16dd'\JJ	.	.	.	.	.	.	.	.	.	.	.	.	.	.	.
!	!	!	!	!	!	!	!	!	!	!	!	!	!	!	!	!	!LO:LB:g=original	!	!	!
=4	=4	=4	=4	=4	=4	=4	=4	=4	=4	=4	=4	=4	=4	=4	=4	=4	=4	=4	=4	=4
8r	.	.	(16b-/LL	.	(16dd\LL	.	.	.	.	.	2r	.	2r	.	1ryy	1ryy	8r	2r	2r	1ryy
.	.	.	16a/)	.	16cc\)	.	.	.	.	.	.	.	.	.	.	.	.	.	.	.
!	!	!	!	!	!	!	!	!	!	!	!	!	!	!	!	!	!LO:TX:a:t=P:problem:mixed beam	!	!	!
8c\L	6	.	(16cc/	.	(16ee-\	.	.	.	.	.	.	.	.	.	.	.	8c\L	.	.	.
.	.	.	16a/JJ)	.	16cc\JJ)	.	.	.	.	.	.	.	.	.	.	.	.	.	.	.
8d\	4	.	8g/L	.	8b-/L	.	.	.	.	.	.	.	.	.	.	.	8d\	.	.	.
8D\J	#	.	8f#X/J	.	8a/J	.	.	.	.	.	.	.	.	.	.	.	8D/J	.	.	.
!LO:LB:g=original	!	!	!	!	!	!	!	!	!	!	!	!	!	!	!	!	!	!	!	!
8G\L	.	.	8g/L	.	16b-/LL	.	.	.	.	.	4r	.	4r	.	.	.	8G\L	4r	4r	.
.	.	.	.	.	16g/	.	.	.	.	.	.	.	.	.	.	.	.	.	.	.
16D\L	.	.	16d/L	.	16d/	.	.	.	.	.	.	.	.	.	.	.	16D\L	.	.	.
16BB-\JJ	.	.	16B-/JJ	.	16B-/JJ	.	.	.	.	.	.	.	.	.	.	.	16BB-\JJ	.	.	.
8GG/	.	.	8G/	.	8G/	.	.	.	.	.	8r	.	8r	.	.	.	8GG/	8r	8r	.
!	!	!	!	!	!	!	!	!	!	!	!LO:TX:b:t=P:problem:"S" przed kluczem	!	!LO:TX:b:t=P:problem:"S" przed kluczem	!	!	!	!	!	!	!
8r	.	.	8r	.	8r	.	.	.	.	.	8b-\	San-	8dd\	San-	.	.	8r	8b-\	8dd\	.
!	!	!	!	!	!LO:LB:g=original	!	!	!	!	!	!	!	!	!	!	!	!	!	!	!
=5	=5	=5	=5	=5	=5	=5	=5	=5	=5	=5	=5	=5	=5	=5	=5	=5	=5	=5	=5	=5
!	!	!LO:DY:t=piano	!	!LO:DY:t=p&colon;	!	!LO:DY:t=piano	!	!	!	!	!	!	!	!	!	!	!	!	!	!
16r	.	p	16r	p	16r	p	0r	.	0r	.	16cc\LL	.	16ee-\LL	.	1ryy	1ryy	16r	16cc\LL	16ee-\LL	1ryy
16G\LL	.	.	16d/LL	.	16b-\LL	.	.	.	.	.	16b-\JJ	.	16dd\JJ	.	.	.	16G\LL	16b-\JJ	16dd\JJ	.
16G\	.	.	16d/	.	16b-\	.	.	.	.	.	8b-\	-ctus	8dd\	-ctus	.	.	16G\	8b-\	8dd\	.
16G\JJ	.	.	16d/JJ	.	16b-\JJ	.	.	.	.	.	.	.	.	.	.	.	16G\JJ	.	.	.
*tremolo	*	*	*tremolo	*	*tremolo	*	*	*	*	*	*	*	*	*	*	*	*tremolo	*	*	*
16G\LL	.	.	16d/LL	.	16b-\LL	.	.	.	.	.	8r	.	8r	.	.	.	16G\LL	8r	8r	.
16G\	.	.	16d/	.	16b-\	.	.	.	.	.	.	.	.	.	.	.	16G\	.	.	.
*Xtremolo	*	*	*	*	*	*	*	*	*	*	*	*	*	*ij	*	*	*	*	*	*
16G\	.	.	16d/	.	16b-\	.	.	.	.	.	8b-\	San-	8dd\	San-	.	.	16G\	8b-\	8dd\	.
16G\JJ	.	.	16d/JJ	.	16b-\JJ	.	.	.	.	.	.	.	.	.	.	.	16G\JJ	.	.	.
*	*	*	*Xtremolo	*	*Xtremolo	*	*	*	*	*	*	*	*	*	*	*	*Xtremolo	*	*	*
!	!	!	!	!	!	!	!	!	!	!	!LO:LB:g=original	!	!	!	!	!	!	!	!	!
16r	.	.	16r	.	16r	.	.	.	.	.	16cc\LL	.	16ee-\LL	.	.	.	16r	16cc\LL	16ee-\LL	.
16G\LL	.	.	16d/LL	.	16b-\LL	.	.	.	.	.	16b-\JJ	.	16dd\JJ	.	.	.	16G\LL	16b-\JJ	16dd\JJ	.
16G\	.	.	16d/	.	16b-\	.	.	.	.	.	8b-\	-ctus	8dd\	-ctus	.	.	16G\	8b-\	8dd\	.
16G\JJ	.	.	16d/JJ	.	16b-\JJ	.	.	.	.	.	.	.	.	.	.	.	16G\JJ	.	.	.
*tremolo	*	*	*tremolo	*	*tremolo	*	*	*	*	*	*	*	*	*Xij	*	*	*tremolo	*	*	*
16G\LL	.	.	16d/LL	.	16b-\LL	.	.	.	.	.	8r	.	8r	.	.	.	16G\LL	8r	8r	.
16G\	.	.	16d/	.	16b-\	.	.	.	.	.	.	.	.	.	.	.	16G\	.	.	.
16G\	.	.	16d/	.	16b-\	.	.	.	.	.	8b-\	Do-	8dd\	Do-	.	.	16G\	8b-\	8dd\	.
16G\JJ	.	.	16d/JJ	.	16b-\JJ	.	.	.	.	.	.	.	.	.	.	.	16G\JJ	.	.	.
*Xtremolo	*	*	*Xtremolo	*	*Xtremolo	*	*	*	*	*	*	*	*	*	*	*	*Xtremolo	*	*	*
!	!	!	!LO:LB:g=original	!	!	!	!	!	!	!	!	!	!LO:LB:g=original	!	!	!	!	!	!LO:LB:g=original	!
=6	=6	=6	=6	=6	=6	=6	=6	=6	=6	=6	=6	=6	=6	=6	=6	=6	=6	=6	=6	=6
16r	.	.	16r	.	16r	.	.	.	.	.	8.a\	-mi-	8.cc\	-mi-	1ryy	1ryy	16r	8.a\	8.cc\	1ryy
16C/LL	6	.	16e-/LL	.	16a/LL	.	.	.	.	.	.	.	.	.	.	.	16C/LL	.	.	.
16C/	.	.	16e-/	.	16a/	.	.	.	.	.	.	.	.	.	.	.	16C/	.	.	.
16C/JJ	.	.	16e-/JJ	.	16a/JJ	.	.	.	.	.	16cc\	-nus	16ee-\	-nus	.	.	16C/JJ	16cc\	16ee-\	.
*tremolo	*	*	*tremolo	*	*tremolo	*	*	*	*	*	*	*	*	*	*	*	*tremolo	*	*	*
16D/LL	#	.	16f#X/LL	.	16a/LL	.	.	.	.	.	8f#X\	De-	8a\	De-	.	.	16D/LL	8f#X\	8a\	.
16D/	.	.	16f#X/	.	16a/	.	.	.	.	.	.	.	.	.	.	.	16D/	.	.	.
16D/	.	.	16f#X/	.	16a/	.	.	.	.	.	8a\	-us	8cc\	-us	.	.	16D/	8a\	8cc\	.
16D/JJ	.	.	16f#X/JJ	.	16a/JJ	.	.	.	.	.	.	.	.	.	.	.	16D/JJ	.	.	.
*Xtremolo	*	*	*Xtremolo	*	*Xtremolo	*	*	*	*	*	*	*	*	*	*	*	*Xtremolo	*	*	*
!	!	!	!	!	!	!	!	!	!	!	!	!	!	!	!	!	!	!LO:LB:g=original	!	!
16r	.	.	16r	.	16r	.	.	.	.	.	16a\LL	Sa-	16cc\LL	sa-	.	.	16r	16a\LL	16cc\LL	.
16G\LL	.	.	16g/LL	.	16b-\LL	.	.	.	.	.	16g\JJ	-ba-	16b-\JJ	-ba-	.	.	16G\LL	16g\JJ	16a\JJ	.
16G\	.	.	16d/	.	16b-\	.	.	.	.	.	8g\	-oth	8b-\	-oth	.	.	16G\	8g\	8a\	.
16G\JJ	.	.	16d/JJ	.	16b-\JJ	.	.	.	.	.	.	.	.	.	.	.	16G\JJ	.	.	.
*tremolo	*	*	*tremolo	*	*tremolo	*	*	*	*	*	*	*	*	*	*	*	*tremolo	*	*	*
16G\LL	.	.	16d/LL	.	16b-\LL	.	.	.	.	.	8r	.	8r	.	.	.	16G\LL	8r	8r	.
16G\	.	.	16d/	.	16b-\	.	.	.	.	.	.	.	.	.	.	.	16G\	.	.	.
16G\	.	.	16d/	.	16b-\	.	.	.	.	.	8b-\	Ple-	8dd\	Ple-	.	.	16G\	8b-\	8dd\	.
16G\JJ	.	.	16d/JJ	.	16b-\JJ	.	.	.	.	.	.	.	.	.	.	.	16G\JJ	.	.	.
*Xtremolo	*	*	*Xtremolo	*	*Xtremolo	*	*	*	*	*	*	*	*	*	*	*	*Xtremolo	*	*	*
!	!	!	!	!	!	!	!	!	!	!	!LO:LB:g=original	!	!	!	!	!	!LO:LB:g=original	!	!	!
=7	=7	=7	=7	=7	=7	=7	=7	=7	=7	=7	=7	=7	=7	=7	=7	=7	=7	=7	=7	=7
!	!	!	!	!	!	!	!	!	!	!	!LO:TX:a:t=P:problem:przed tym taktem skreślone takty	!	!	!	!	!	!	!	!	!
16r	.	.	16r	.	16r	.	1r	.	1r	.	16cc\LL	.	16ee-\LL	-ni	1ryy	1ryy	16r	16cc\	16ee-\	1ryy
16G\LL	.	.	16d/LL	.	16b-\LL	.	.	.	.	.	16b-\JJ	-ni	16dd\JJ	.	.	.	16G\LL	16b-\	16dd\	.
16G\	.	.	16d/	.	16b-\	.	.	.	.	.	8b-\	sunt	8dd\	sunt	.	.	16G\	8b-\	8dd\	.
16G\JJ	.	.	16d/JJ	.	16b-\JJ	.	.	.	.	.	.	.	.	.	.	.	16G\JJ	.	.	.
*tremolo	*	*	*tremolo	*	*tremolo	*	*	*	*	*	*	*	*	*	*	*	*tremolo	*	*	*
16G\LL	.	.	16d/LL	.	16b-\LL	.	.	.	.	.	8r	.	8r	.	.	.	16G\LL	8r	8r	.
16G\	.	.	16d/	.	16b-\	.	.	.	.	.	.	.	.	.	.	.	16G\	.	.	.
16G\	.	.	16d/	.	16b-\	.	.	.	.	.	8b-\	coe-	8dd\	coe-	.	.	16G\	8b-\	8dd\	.
16G\JJ	.	.	16d/JJ	.	16b-\JJ	.	.	.	.	.	.	.	.	.	.	.	16G\JJ	.	.	.
*Xtremolo	*	*	*Xtremolo	*	*Xtremolo	*	*	*	*	*	*	*	*	*	*	*	*Xtremolo	*	*	*
!	!	!	!	!	!	!	!	!	!	!	!	!	!LO:LB:g=original	!	!	!	!	!	!	!
16r	.	.	16r	.	16r	.	.	.	.	.	16cc\LL	.	16ee-\LL	.	.	.	16r	16cc\	16ee-\	.
16G\LL	.	.	16d/LL	.	16b-\LL	.	.	.	.	.	16b-\JJ	.	16dd\JJ	.	.	.	16G\LL	16b-\	16dd\	.
16G\	.	.	16d/	.	16b-\	.	.	.	.	.	8b-\	-li	8dd\	-li	.	.	16G\	8b-\	8dd\	.
16G\JJ	.	.	16d/JJ	.	16b-\JJ	.	.	.	.	.	.	.	.	.	.	.	16G\JJ	.	.	.
*tremolo	*	*	*	*	*	*	*	*	*	*	*	*	*	*	*	*	*tremolo	*	*	*
16G\LL	.	.	16d/LL	.	16b-\LL	.	.	.	.	.	8r	.	8r	.	.	.	16G\LL	8r	8r	.
16G\	.	.	16d/	.	16b-\	.	.	.	.	.	.	.	.	.	.	.	16G\	.	.	.
16G\	.	.	16d/	.	16b-\	.	.	.	.	.	8b-\	et	8dd\	et	.	.	16G\	8b-\	8dd\	.
16G\JJ	.	.	16d/JJ	.	16b-\JJ	.	.	.	.	.	.	.	.	.	.	.	16G\JJ	.	.	.
*Xtremolo	*	*	*	*	*	*	*	*	*	*	*	*	*	*	*	*	*Xtremolo	*	*	*
!LO:LB:g=original	!	!	!	!	!LO:LB:g=original	!	!	!	!	!	!LO:LB:g=original	!	!	!	!	!	!	!	!LO:LB:g=original	!
=8	=8	=8	=8	=8	=8	=8	=8	=8	=8	=8	=8	=8	=8	=8	=8	=8	=8	=8	=8	=8
16r	.	.	16r	.	16r	.	2r	.	2r	.	4.g\	ter-	4cc#X\	ter-	1ryy	1ryy	16r	4.g/	4cc#X\	1ryy
16E-\LL	6\_ 3_	.	16g/LL	.	16cc#X\LL	.	.	.	.	.	.	.	.	.	.	.	16E-\LL	.	.	.
16E-\	.	.	16g/	.	16cc#\	.	.	.	.	.	.	.	.	.	.	.	16E-\	.	.	.
16E-\JJ	X X	.	16g/JJ	.	16cc#\JJ	.	.	.	.	.	.	.	.	.	.	.	16E-\JJ	.	.	.
*tremolo	*	*	*tremolo	*	*	*	*	*	*	*	*	*	*	*	*	*	*tremolo	*	*	*
16E-\LL	.	.	16g/LL	.	16cc#\LL	.	.	.	.	.	.	.	32cc#\LLL	.	.	.	16E-\LL	.	32cc#\LLL	.
.	.	.	.	.	.	.	.	.	.	.	.	.	32dd\	.	.	.	.	.	32dd\	.
16E-\	.	.	16g/	.	16cc#\	.	.	.	.	.	.	.	32ee-\	.	.	.	16E-\	.	32ee-\	.
.	.	.	.	.	.	.	.	.	.	.	.	.	32ff#X\JJJ	.	.	.	.	.	32ff#X\JJJ	.
16E-\	.	.	16g/	.	16cc#\	.	.	.	.	.	8g\	.	32gg\LLL	.	.	.	16E-\	8g/	32gg\LLL	.
.	.	.	.	.	.	.	.	.	.	.	.	.	32ee-\JJJ	.	.	.	.	.	32ee-\	.
16E-\JJ	.	.	16g/JJ	.	16cc#\JJ	.	.	.	.	.	.	.	32dd\LLL	.	.	.	16E-\JJ	.	32dd\	.
*Xtremolo	*	*	*Xtremolo	*	*	*	*	*	*	*	*	*	*	*	*	*	*Xtremolo	*	*	*
.	.	.	.	.	.	.	.	.	.	.	.	.	32cc#\JJJ	.	.	.	.	.	32cc#\JJJ	.
8D\L	#	.	8f#X/L	.	8dd\L	.	2r;	.	2r;	.	8f#X\	.	16cc#\LL	.	.	.	8D\L	8f#X/	16cc#\LL	.
.	.	.	.	.	.	.	.	.	.	.	.	.	16dd\JJ	.	.	.	.	.	16dd\JJ	.
8D;\J	.	.	8f#;/J	.	8dd;\J	.	.	.	.	.	8f#;\	-ra	8dd;\	-ra	.	.	8D;\J	8f#;/	8dd;\	.
!	!	!	!	!	!	!	!	!	!	!	!	!	!LO:N:vis=8	!	!	!	!	!	!	!
4r	.	.	4r	.	4r	.	.	.	.	.	4r	.	4r	.	.	.	4r	4r	4r	.
!	!	!	!LO:LB:g=original	!	!	!	!	!	!	!	!	!	!LO:LB:g=original	!	!	!	!	!LO:LB:g=original	!	!
=9	=9	=9	=9	=9	=9	=9	=9	=9	=9	=9	=9	=9	=9	=9	=9	=9	=9	=9	=9	=9
*	*	*	*	*	*	*	*2\right	*	*2\right	*	*2\right	*	*2\right	*	*	*	*	*	*2\right	*
!LO:TX:a:t=Tutti	!	!	!	!LO:DY:t=forte	!	!LO:DY:rj:t=forte	!	!	!	!	!	!	!	!	!	!	!LO:TX:a:t=Tutti	!	!	!
8BB-/L	.	.	16r	f	16r	f	2B-\	glo-	2B-\	glo-	2fn\	glo-	2dd\	glo-	1ryy	1ryy	8BB-/L	2fn/	2dd\	1ryy
!	!	!	!LO:TX:b:t=|:problem	!	!LO:TX:b:t=|:problem	!	!	!	!	!	!	!	!	!	!	!	!	!	!	!
.	.	.	16fn/LL	.	16fn/LL	.	.	.	.	.	.	.	.	.	.	.	.	.	.	.
8BB-/	.	.	(16b-/	.	(16b-/	.	.	.	.	.	.	.	.	.	.	.	8BB-/	.	.	.
.	.	.	16dd/JJ)	.	16dd/JJ)	.	.	.	.	.	.	.	.	.	.	.	.	.	.	.
8BB-/	.	.	(16ff/LL	.	(16ff/LL	.	.	.	.	.	.	.	.	.	.	.	8BB-/	.	.	.
.	.	.	16dd/)	.	16dd/)	.	.	.	.	.	.	.	.	.	.	.	.	.	.	.
8BB-/J	.	.	(16b-/	.	(16b-/	.	.	.	.	.	.	.	.	.	.	.	8BB-/J	.	.	.
.	.	.	16f/JJ)	.	16f/JJ)	.	.	.	.	.	.	.	.	.	.	.	.	.	.	.
*tremolo	*	*	*	*	*	*	*	*	*	*	*	*	*	*	*	*	*tremolo	*	*	*
8BB-/L	6 4	.	16r	.	16r	.	2B-\	.	2B-\	.	2g\	.	2ee-\	.	.	.	8BB-/L	2g/	2ee-\	.
!	!	!	!LO:TX:b:t=|:problem	!	!LO:TX:a:t=|:problem	!	!	!	!	!	!	!	!	!	!	!	!	!	!	!
.	.	.	16g/LL	.	16g\LL	.	.	.	.	.	.	.	.	.	.	.	.	.	.	.
8BB-/	.	.	(16b-/	.	(16b-\	.	.	.	.	.	.	.	.	.	.	.	8BB-/	.	.	.
.	.	.	16ee-/JJ)	.	16ee-\JJ)	.	.	.	.	.	.	.	.	.	.	.	.	.	.	.
8BB-/	.	.	(16gg\LL	.	(16gg\LL	.	.	.	.	.	.	.	.	.	.	.	8BB-/	.	.	.
.	.	.	16ee-\)	.	16ee-\)	.	.	.	.	.	.	.	.	.	.	.	.	.	.	.
8BB-/J	.	.	(16b-\	.	(16b-\	.	.	.	.	.	.	.	.	.	.	.	8BB-/J	.	.	.
.	.	.	16g\JJ)	.	16g\JJ)	.	.	.	.	.	.	.	.	.	.	.	.	.	.	.
=10	=10	=10	=10	=10	=10	=10	=10	=10	=10	=10	=10	=10	=10	=10	=10	=10	=10	=10	=10	=10
*	*	*	*	*	*	*	*	*	*	*	*	*	*	*	*	*	*	*2\right	*	*
8BB-/L	7 2	.	16r	.	16r	.	2B-\	-ri-	2B-\	-ri-	2a\	-ri-	2cc\	-ri-	1ryy	1ryy	8BB-/L	2a\	2cc\	1ryy
!	!	!	!LO:TX:a:t=|:problem	!	!LO:TX:a:t=|:problem	!	!	!	!	!	!	!	!	!	!	!	!	!	!	!
.	.	.	16a\LL	.	16a\LL	.	.	.	.	.	.	.	.	.	.	.	.	.	.	.
8BB-/	.	.	(16cc\	.	(16cc\	.	.	.	.	.	.	.	.	.	.	.	8BB-/	.	.	.
.	.	.	16ff\JJ)	.	16ff\JJ)	.	.	.	.	.	.	.	.	.	.	.	.	.	.	.
8BB-/	.	.	(16aa\LL	.	(16aa\LL	.	.	.	.	.	.	.	.	.	.	.	8BB-/	.	.	.
.	.	.	16ff\)	.	16ff\)	.	.	.	.	.	.	.	.	.	.	.	.	.	.	.
8BB-/J	.	.	(16cc\	.	(16cc\	.	.	.	.	.	.	.	.	.	.	.	8BB-/J	.	.	.
.	.	.	16a\JJ)	.	16a\JJ)	.	.	.	.	.	.	.	.	.	.	.	.	.	.	.
!	!	!	!	!	!LO:LB:g=original	!	!	!	!	!	!	!	!	!	!	!	!	!	!	!
8BB-/L	8 3	.	16r	.	16r	.	2B-\	-a	2B-\	-a	2b-\	-a	2dd\	-a	.	.	8BB-/L	2b-\	2dd\	.
!	!	!	!LO:TX:a:t=|:problem	!	!LO:TX:a:t=|:problem	!	!	!	!	!	!	!	!	!	!	!	!	!	!	!
.	.	.	16b-\LL	.	16b-\LL	.	.	.	.	.	.	.	.	.	.	.	.	.	.	.
8BB-/	.	.	(16dd\	.	(16dd\	.	.	.	.	.	.	.	.	.	.	.	8BB-/	.	.	.
.	.	.	16ff\JJ)	.	16ff\JJ)	.	.	.	.	.	.	.	.	.	.	.	.	.	.	.
8BB-/	.	.	(16bb-\LL	.	(16bb-\LL	.	.	.	.	.	.	.	.	.	.	.	8BB-/	.	.	.
.	.	.	16ff\)	.	16ff\)	.	.	.	.	.	.	.	.	.	.	.	.	.	.	.
8BB-/J	.	.	(16dd\	.	(16dd\	.	.	.	.	.	.	.	.	.	.	.	8BB-/J	.	.	.
.	.	.	16b-\JJ)	.	16b-\JJ)	.	.	.	.	.	.	.	.	.	.	.	.	.	.	.
*Xtremolo	*	*	*	*	*	*	*	*	*	*	*	*	*	*	*	*	*Xtremolo	*	*	*
!	!	!	!LO:LB:g=original	!	!	!	!LO:LB:g=original	!	!LO:LB:g=original	!	!	!	!	!	!	!	!LO:LB:g=original	!	!	!
=11	=11	=11	=11	=11	=11	=11	=11	=11	=11	=11	=11	=11	=11	=11	=11	=11	=11	=11	=11	=11
8E-\L	5_ 2	.	(16gg\LL	.	16gg\LL	.	4E-\	glo-	4B-'\	glo-	4g\	glo-	4b-\	glo-	1ryy	1ryy	8E-\L	4g/	4b-\	1ryy
.	.	.	16ee-\)	.	16ee-\	.	.	.	.	.	.	.	.	.	.	.	.	.	.	.
8E-\	.	.	(16bb-\	.	16bb-\	.	.	.	.	.	.	.	.	.	.	.	8E-\	.	.	.
.	.	.	16gg\JJ)	.	16gg\JJ	.	.	.	.	.	.	.	.	.	.	.	.	.	.	.
8D\	x_ 3	.	(16ff\LL	.	16ff\LL	.	8D\	-ri-	8B-'\	-ri-	8f\	-ri-	8b-\	-ri-	.	.	8D\	8f/L	8b-\	.
.	.	.	16dd\)	.	16dd\	.	.	.	.	.	.	.	.	.	.	.	.	.	.	.
8D\J	.	.	(16bb-\	.	16bb-\	.	8D\	-a	8B-\	-a	8f\	-a	8b-\	-a	.	.	8D\J	8f/J	8b-\	.
.	.	.	16ff\JJ)	.	16ff\JJ	.	.	.	.	.	.	.	.	.	.	.	.	.	.	.
!	!	!	!	!	!	!	!	!	!	!	!LO:LB:g=original	!	!	!	!	!	!	!	!LO:LB:g=original	!
8AA/L	6 5	.	(16ff\LL	.	16ff\LL	.	4A\	tu-	4c\	tu-	4f\	tu-	4ee-\	tu-	.	.	8AA/L	4f/	4ee-\	.
.	.	.	16ee-\)	.	16ee-\	.	.	.	.	.	.	.	.	.	.	.	.	.	.	.
8AA/	.	.	(16cc\	.	16cc\	.	.	.	.	.	.	.	.	.	.	.	8AA/	.	.	.
.	.	.	16ee-\JJ)	.	16ee-\JJ	.	.	.	.	.	.	.	.	.	.	.	.	.	.	.
8BB-/	.	.	32dd\LLL	.	32dd\LLL	.	4B-\	-a	4B-\	-a	4f\	-a	4dd\	-a	.	.	8BB-/	4f/	4dd\	.
.	.	.	(32cc\	.	(32cc\	.	.	.	.	.	.	.	.	.	.	.	.	.	.	.
.	.	.	32dd\	.	32dd\	.	.	.	.	.	.	.	.	.	.	.	.	.	.	.
.	.	.	32ee-\	.	32ee-\	.	.	.	.	.	.	.	.	.	.	.	.	.	.	.
8BB-/J	.	.	32ff\	.	32ff\	.	.	.	.	.	.	.	.	.	.	.	8BB-/J	.	.	.
.	.	.	32gg\	.	32gg\	.	.	.	.	.	.	.	.	.	.	.	.	.	.	.
.	.	.	32aa\	.	32aa\)	.	.	.	.	.	.	.	.	.	.	.	.	.	.	.
.	.	.	32bb-\JJJ)	.	32bb-\JJJ	.	.	.	.	.	.	.	.	.	.	.	.	.	.	.
=12	=12	=12	=12	=12	=12	=12	=12	=12	=12	=12	=12	=12	=12	=12	=12	=12	=12	=12	=12	=12
*	*	*	*	*	*	*	*	*ij	*	*ij	*	*	*	*	*	*	*	*	*	*
8E-\L	5_ 2	.	(16gg\LL	.	16gg\LL	.	4E-\	glo-	4B-\	glo-	4g\	glo-	4b-\	glo-	1ryy	1ryy	8E-\L	4g/	4b-\	1ryy
.	.	.	16ee-\)	.	16ee-\	.	.	.	.	.	.	.	.	.	.	.	.	.	.	.
8E-\	x_ 3	.	(16bb-\	.	16bb-\	.	.	.	.	.	.	.	.	.	.	.	8E-\	.	.	.
.	.	.	16gg\JJ)	.	16gg\JJ	.	.	.	.	.	.	.	.	.	.	.	.	.	.	.
8D\	.	.	(16ff\LL	.	16ff\LL	.	8D\	-ri-	8B-\	-ri-	8f\	-ri-	8b-\	-ri-	.	.	8D\	8f/	8b-\	.
.	.	.	16dd\)	.	16dd\	.	.	.	.	.	.	.	.	.	.	.	.	.	.	.
8D\J	X	.	(16bb-\	.	16bb-\	.	8D\	-a	8B-\	-a	8f\	-a	8b-\	-a	.	.	8D\J	8f/	8b-\	.
.	.	.	16ff\JJ)	.	16ff\JJ	.	.	.	.	.	.	.	.	.	.	.	.	.	.	.
!	!	!	!	!	!	!	!	!	!	!	!	!	!LO:LB:g=original	!	!	!	!	!	!	!
8AA/L	6 5	.	(16ff\LL	.	16ff\LL	.	4A\	tu-	4c\	tu-	4f\	tu-	4ee-\	tu-	.	.	8AA/L	4f/	4ee-\	.
.	.	.	16ee-\)	.	16ee-\	.	.	.	.	.	.	.	.	.	.	.	.	.	.	.
8AA/	.	.	(16cc\	.	16cc\	.	.	.	.	.	.	.	.	.	.	.	8AA/	.	.	.
.	.	.	16ee-\JJ)	.	16ee-\JJ	.	.	.	.	.	.	.	.	.	.	.	.	.	.	.
!	!	!	!LO:LB:g=original	!	!LO:LB:g=original	!	!	!	!	!	!	!	!	!	!	!	!	!	!	!
8BB-/	.	.	32dd\LLL	.	32dd\LLL	.	4B-\	-a	4B-\	-a	4f\	-a	4dd\	-a	.	.	8BB-/	4f/	4dd\	.
*	*	*	*	*	*	*	*	*Xij	*	*Xij	*	*	*	*	*	*	*	*	*	*
.	.	.	(32cc\	.	(32cc\	.	.	.	.	.	.	.	.	.	.	.	.	.	.	.
.	.	.	32dd\	.	32dd\	.	.	.	.	.	.	.	.	.	.	.	.	.	.	.
.	.	.	32ee-\	.	32ee-\	.	.	.	.	.	.	.	.	.	.	.	.	.	.	.
8BB-/J	.	.	32ff\	.	32ff\	.	.	.	.	.	.	.	.	.	.	.	8BB-/J	.	.	.
.	.	.	32gg\	.	32gg\	.	.	.	.	.	.	.	.	.	.	.	.	.	.	.
.	.	.	32aa\	.	32aa\)	.	.	.	.	.	.	.	.	.	.	.	.	.	.	.
.	.	.	32bb-\JJJ)	.	32bb-\JJJ	.	.	.	.	.	.	.	.	.	.	.	.	.	.	.
!LO:LB:g=original	!	!	!	!	!	!	!	!	!	!	!	!	!	!	!	!	!	!	!	!
=13	=13	=13	=13	=13	=13	=13	=13	=13	=13	=13	=13	=13	=13	=13	=13	=13	=13	=13	=13	=13
8F\L	3_	.	8ff\L	.	8.aa\L	.	8F\L	oſ-	4c\	O-	4a\	O-	4.ff\	O-	1ryy	1ryy	8F\L	4a\	4.ff\	1ryy
8E-\	.	.	8ff\	.	.	.	8E-\	.	.	.	.	.	.	.	.	.	8E-\	.	.	.
.	.	.	.	.	32gg\LL	.	.	.	.	.	.	.	.	.	.	.	.	.	.	.
.	.	.	.	.	32aa\JJJ	.	.	.	.	.	.	.	.	.	.	.	.	.	.	.
8D\	6	.	8ff\	.	16bb-\LL	.	8D\	.	8d\L	.	8b-\L	.	.	.	.	.	8D\	8b-\L	.	.
.	.	.	.	.	32aa\L	.	.	.	.	.	.	.	.	.	.	.	.	.	.	.
.	.	.	.	.	32bb-\JJJ	.	.	.	.	.	.	.	.	.	.	.	.	.	.	.
8E-\J	6 5	.	8gg\J	.	16ccc\LL	.	8E-\J	.	8c\J	.	16cc\L	.	8gg\	.	.	.	8E-\J	16cc\L	8gg\	.
.	.	.	.	.	16bb-\JJ	.	.	.	.	.	16b-\JJ	.	.	.	.	.	.	16b-\JJ	.	.
!	!	!	!	!	!	!	!LO:LB:g=original	!	!LO:LB:g=original	!	!	!	!	!	!	!	!	!	!	!
8F\L	3_	.	8ff\L	.	8.aa\L	.	8F\L	-ſan-	4c\	-ſan-	4a\	-san-	4.ff\	-san-	.	.	8F\L	4a\	4.ff\	.
8E-\	.	.	8ff\	.	.	.	8E-\J	.	.	.	.	.	.	.	.	.	8E-\	.	.	.
.	.	.	.	.	32gg\LL	.	.	.	.	.	.	.	.	.	.	.	.	.	.	.
.	.	.	.	.	32aa\JJJ	.	.	.	.	.	.	.	.	.	.	.	.	.	.	.
8D\	6	.	8ff\	.	16bb-\LL	.	8D\L	-na	8d\L	.	8b-\L	.	.	.	.	.	8D\	8b-\L	.	.
.	.	.	.	.	32aa\L	.	.	.	.	.	.	.	.	.	.	.	.	.	.	.
.	.	.	.	.	32bb-\JJJ	.	.	.	.	.	.	.	.	.	.	.	.	.	.	.
8E-\J	6 5	.	8gg\J	.	16ccc\LL	.	8E-\J	.	8c\J	-na	16cc\L	-na	8gg\	-na	.	.	8E-\J	16cc\L	8gg\	.
.	.	.	.	.	16bb-\JJ	.	.	.	.	.	16b-\JJ	.	.	.	.	.	.	16b-\JJ	.	.
!	!	!	!	!	!	!	!	!	!	!	!LO:LB:g=original	!	!	!	!	!	!	!LO:LB:g=original	!	!
=14	=14	=14	=14	=14	=14	=14	=14	=14	=14	=14	=14	=14	=14	=14	=14	=14	=14	=14	=14	=14
8F\L	n	.	16ff\LL	.	16aa\LL	.	8F\	in	8c\	in	8a\	in	8ff\	in	1ryy	1ryy	8F\L	8a\	8ff\	1ryy
.	.	.	16ff\	.	16aa\	.	.	.	.	.	.	.	.	.	.	.	.	.	.	.
8G\	.	.	16dd\	.	16bb-\	.	8G\	ex	8g\	ex-	8b-\	ex	8dd\	ex-	.	.	8G\	8b-\	8dd\	.
.	.	.	16dd\JJ	.	16bb-\JJ	.	.	.	.	.	.	.	.	.	.	.	.	.	.	.
!	!	!	!	!	!	!	!	!	!LO:SIC:v:l:s=-cel-	!	!LO:SIC:v:l:s=-cel-	!	!LO:SIC:v:l:s=-cel-	!	!	!	!	!	!	!
8E-\	6 5	.	16cc\LL	.	16bb-\LL	.	8E-\L	cel-	8g\L	-cael-	8b-\L	cael-	4cc\	-cael-	.	.	8E-\	8b-\L	4cc\	.
.	.	.	16cc\	.	16bb-\	.	.	.	.	.	.	.	.	.	.	.	.	.	.	.
8F\J	.	.	16cc\	.	16aa\	.	8F\J	.	8f\J	.	8a\J	.	.	.	.	.	8D\J	8a\J	.	.
.	.	.	16cc\JJ	.	16aa\JJ	.	.	.	.	.	.	.	.	.	.	.	.	.	.	.
*	*	*	*Xtremolo	*	*	*	*	*	*	*	*	*	*	*	*	*	*	*	*	*
!LO:TX:a:t=Solo	!	!	!	!	!	!	!	!	!	!	!	!	!	!	!	!	!LO:TX:a:t=Solo	!	!	!
8BB-/L	.	.	16dd'\LL	.	16bb-\LL	.	4BB-/	-siſ	4f\	-siſ	4b-\	-siſ.	4dd\	-sis.	.	.	8BB-/L	4b-\	4dd\	.
.	.	.	16dd'\	.	16ff\	.	.	.	.	.	.	.	.	.	.	.	.	.	.	.
8BB-/	.	.	16dd'\	.	16ff\	.	.	.	.	.	.	.	.	.	.	.	8BB-/	.	.	.
.	.	.	16dd'\JJ	.	16ff\JJ	.	.	.	.	.	.	.	.	.	.	.	.	.	.	.
8BB-/	.	.	(16dd\LL	.	(16ff\LL	.	4r	.	4r	.	4r	.	4r	.	.	.	8BB-/	4r	4r	.
.	.	.	32cc\L	.	32ee-\L	.	.	.	.	.	.	.	.	.	.	.	.	.	.	.
.	.	.	32dd\JJJ)	.	32ff\JJJ)	.	.	.	.	.	.	.	.	.	.	.	.	.	.	.
!	!	!	!LO:TX:a:t=|:problem	!	!	!	!	!	!	!	!	!	!	!	!	!	!	!	!	!
8BB-/J	.	.	16ee-\LL	.	(16gg\LL	.	.	.	.	.	.	.	.	.	.	.	8BB-/J	.	.	.
!	!	!	!LO:TX:a:t=|:problem	!	!LO:TX:b:i:t=Verte Cito	!	!	!	!	!	!	!	!	!	!	!	!	!	!	!
.	.	.	16dd\JJ	.	16ff\JJ)	.	.	.	.	.	.	.	.	.	.	.	.	.	.	.
!	!	!	!LO:LB:g=original	!	!LO:PB:g=original	!	!	!	!	!	!	!	!	!	!	!	!LO:LB:g=original	!	!	!
=15	=15	=15	=15	=15	=15	=15	=15	=15	=15	=15	=15	=15	=15	=15	=15	=15	=15	=15	=15	=15
*tremolo	*	*	*	*	*	*	*	*	*	*	*	*	*	*	*	*	*tremolo	*	*	*
8F\L	.	.	(16dd\LL	.	(16ff\LL	.	0r	.	0r	.	0r	.	0r	.	1ryy	1ryy	8F\L	0r	0r	1ryy
.	.	.	16cc\)	.	16ee-\)	.	.	.	.	.	.	.	.	.	.	.	.	.	.	.
!	!	!	!LO:TX:a:t=|:problem	!	!	!	!	!	!	!	!	!	!	!	!	!	!	!	!	!
8F\	.	.	16cc\	.	16ee-'\	.	.	.	.	.	.	.	.	.	.	.	8F\	.	.	.
!	!	!	!LO:TX:a:t=|:problem	!	!	!	!	!	!	!	!	!	!	!	!	!	!	!	!	!
.	.	.	16cc\JJ	.	16ee-'\JJ	.	.	.	.	.	.	.	.	.	.	.	.	.	.	.
8F\	.	.	16cc\LL	.	(16ee-\LL	.	.	.	.	.	.	.	.	.	.	.	8F\	.	.	.
.	.	.	32b-\L	.	32dd\L	.	.	.	.	.	.	.	.	.	.	.	.	.	.	.
.	.	.	32cc\JJJ	.	32ee-\JJJ)	.	.	.	.	.	.	.	.	.	.	.	.	.	.	.
8F\J	.	.	16dd\LL	.	(16ff\LL	.	.	.	.	.	.	.	.	.	.	.	8F\J	.	.	.
.	.	.	16cc\JJ	.	16ee-\JJ)	.	.	.	.	.	.	.	.	.	.	.	.	.	.	.
*Xtremolo	*	*	*	*	*	*	*	*	*	*	*	*	*	*	*	*	*Xtremolo	*	*	*
8B-\L	.	.	16cc\LL	.	(16ee-\LL	.	.	.	.	.	.	.	.	.	.	.	8B-\L	.	.	.
.	.	.	16b-\J	.	16dd\)	.	.	.	.	.	.	.	.	.	.	.	.	.	.	.
8B-\	.	.	8dd\J	.	16ff'\	.	.	.	.	.	.	.	.	.	.	.	8B-\	.	.	.
.	.	.	.	.	16ff'\JJ	.	.	.	.	.	.	.	.	.	.	.	.	.	.	.
8D\	6	.	8f/L	.	(16ff\LL	.	.	.	.	.	.	.	.	.	.	.	8D\	.	.	.
.	.	.	.	.	16dd\)	.	.	.	.	.	.	.	.	.	.	.	.	.	.	.
8D\J	.	.	8f/J	.	(16cc\	.	.	.	.	.	.	.	.	.	.	.	8D\J	.	.	.
.	.	.	.	.	16b-\JJ)	.	.	.	.	.	.	.	.	.	.	.	.	.	.	.
=16	=16	=16	=16	=16	=16	=16	=16	=16	=16	=16	=16	=16	=16	=16	=16	=16	=16	=16	=16	=16
!LO:TX:a:t=P:problem:mixed beam	!	!	!	!	!	!	!	!	!	!	!	!	!	!	!	!	!LO:TX:a:t=P:problem:mixed beam	!	!	!
8E-\L	6	.	8g/L	.	16cc\LL	.	.	.	.	.	.	.	.	.	1ryy	1ryy	8E-\L	.	.	1ryy
.	.	.	.	.	16dd\	.	.	.	.	.	.	.	.	.	.	.	.	.	.	.
8E-\	.	.	16g/L	.	16ee-\	.	.	.	.	.	.	.	.	.	.	.	8E-\	.	.	.
.	.	.	16e-/JJ	.	16cc\JJ	.	.	.	.	.	.	.	.	.	.	.	.	.	.	.
8F\	4	.	8d/L	.	8b-/L	.	.	.	.	.	.	.	.	.	.	.	8F\	.	.	.
8FF/J	3	.	8c/J	.	8a/J	.	.	.	.	.	.	.	.	.	.	.	8FF/J	.	.	.
16BB-\LL	.	.	16d/LL	.	16b-/LL	.	.	.	.	.	.	.	.	.	.	.	16BB-\LL	.	.	.
16B-\	.	.	16b-/	.	16b-/	.	.	.	.	.	.	.	.	.	.	.	16B-\	.	.	.
16F\	.	.	16f/	.	16f/	.	.	.	.	.	.	.	.	.	.	.	16F\	.	.	.
16D\JJ	.	.	16d/JJ	.	16d/JJ	.	.	.	.	.	.	.	.	.	.	.	16D\JJ	.	.	.
8BB-/	.	.	8B-/	.	8B-/	.	.	.	.	.	.	.	.	.	.	.	8BB-/	.	.	.
!	!	!	!	!	!	!	!	!	!	!	!LO:TX:b:t=Verte Cito Benedict(us)	!	!LO:TX:b:t=Verte Cito Benedictus	!	!	!	!	!	!	!
8r	.	.	8r	.	8r	.	.	.	.	.	.	.	.	.	.	.	8r	.	.	.
==	==	==	==	==	==	==	==	==	==	==	==	==	==	==	==	==	==	==	==	==
*-	*-	*-	*-	*-	*-	*-	*-	*-	*-	*-	*-	*-	*-	*-	*-	*-	*-	*-	*-	*-
!!!system-decoration: [g1][g2][g3][g4]s13
!!!ENC:Anastazja Marusiak
!!!END:2020-06-26
!!!ENC: Marta Lawrence
!!!END: 2020-11-19
